COLOR/categories 16/16/bug.svg

<svg height="16" width="16" xmlns="http://www.w3.org/2000/svg"><g fill="#c6272f" transform="matrix(.9375 0 0 .9375 .5 .5)"><path d="m5.3261719 0c-1.67759.0195-2.9064963-.04015813-3.9101563.51367188-.50182995.27685999-.89762746.74519812-1.11718748 1.33007812-.21956.58488-.29882812 1.27944-.29882812 2.15625v8c0 .87681.07924813 1.57137.29882812 2.15625.21956002.58488.61535753 1.053218 1.11718748 1.330078 1.00366.55376 2.2325663.494242 3.9101563.513672h.00391 5.3398441.0039c1.67759-.0195 2.904543.04016 3.908203-.513672.50183-.27686.897628-.745198 1.117188-1.330078.219984-.58488.300783-1.27944.300783-2.15625v-8c0-.87681-.079248-1.57136-.298828-2.15625-.21955-.58488-.615358-1.05319813-1.117188-1.33007812-1.00366-.55379-2.232556-.49431188-3.910156-.51367188h-.0039-2.0039064-3.3359375z" fill="#c6272f"/><path d="m5.3261719 0c-1.67759.0195-2.9064963-.04015813-3.9101563.51367188-.50182995.27685999-.89762746.74519812-1.11718748 1.33007812-.21956.58488-.29882812 1.27944-.29882812 2.15625v8c0 .87681.07924813 1.57137.29882812 2.15625.21956002.58488.61535753 1.053218 1.11718748 1.330078 1.00366.55376 2.2325663.494242 3.9101563.513672h.00391 5.3398441.0039c1.67759-.0195 2.904543.04016 3.908203-.513672.50183-.27686.897628-.745198 1.117188-1.330078.219984-.58488.300783-1.27944.300783-2.15625v-8c0-.87681-.079248-1.57136-.298828-2.15625-.21955-.58488-.615358-1.05319813-1.117188-1.33007812-1.00366-.55379-2.232556-.49431188-3.910156-.51367188h-.0039-2.0039064-3.3359375z" fill="#ed3146"/><path d="m5.3261719 0c-1.6775901.0195-2.9064964-.040158-3.9101563.5136719-.50183.27686-.89762753.7451981-1.11718753 1.3300781s-.2988281 1.27944-.2988281 2.15625v.5c0-.87681.079268-1.57137.2988281-2.15625.21956-.58488.61535753-1.0532181 1.11718753-1.3300781 1.0036599-.55383 2.2325662-.4941719 3.9101563-.5136719h.00391 3.3359375 2.0039066.0039c1.6776.01936 2.906496-.040118 3.910156.5136719.50183.27688.897638.7451981 1.117188 1.3300781.219582.58489.29883 1.27944.29883 2.15625v-.5c0-.87681-.07925-1.57136-.298828-2.15625-.21955-.58488-.615358-1.0531981-1.117188-1.3300781-1.00366-.55379-2.232556-.4943119-3.910156-.5136719h-.0039-2.0039064-3.3359375z" fill="#fff" opacity=".3"/><path d="m10.673828 16c1.67759-.0195 2.906496.04016 3.910156-.513672.50183-.27686.897628-.745198 1.117188-1.330078s.298828-1.27944.298828-2.15625v-.5c0 .87681-.07927 1.57137-.298828 2.15625-.21956.58488-.615358 1.053218-1.117188 1.330078-1.00366.55383-2.232566.494172-3.910156.513672h-.0039-3.3359374-2.0039064-.0039c-1.67761-.01936-2.906506.04012-3.910166-.513672-.50183-.27688-.897638-.745198-1.117188-1.330078-.2195822-.58489-.2988302-1.27944-.2988302-2.15625v.5c0 .87681.079248 1.57136.298828 2.15625.21955.58488.615358 1.053198 1.117188 1.330078 1.00366.55379 2.232556.494312 3.910156.513672h.0039 2.0039064 3.3359376z" fill="#100001" opacity=".2"/></g><path d="m4.7835828 2.3757615a.40172869.40172869 0 0 0 -.4017281.4017286.40172869.40172869 0 0 0 .4017281.4017287v.00803a1.5153206 1.7410921 0 0 1 1.1915278.8918377 3.2138295 4.0172869 0 0 0 -1.0171772 1.8222411 4.8448479 4.0172869 0 0 0 .01125.00806 4.3097453 4.3097453 0 0 0 -2.2054903 2.1757618c-.9641484 2.1203316-.1092703 4.5837316 1.9098178 5.5036906a.40092522.40092522 0 0 0 .5318888-.200061l.7174875-1.574777a3.2138295 4.2181512 0 0 0 2.0745272 1.006733 3.2138295 4.2181512 0 0 0 2.0793476-1.007536l.717488 1.57558c.09159.202471.329417.291655.531888.199257 2.019089-.919155 2.874771-3.382555 1.909819-5.5036822a4.3105488 4.3105488 0 0 0 -2.206295-2.1757618 4.8448479 4.0172869 0 0 0 .0065-.00319 3.2138295 4.0172869 0 0 0 -1.018784-1.8222417 1.5153206 1.7410921 0 0 1 1.193938-.8958549v-.00803a.40172869.40172869 0 0 0 .401656-.401729.40172869.40172869 0 0 0 -.401728-.4017287.40172869.40172869 0 0 0 -.136588.0233006 2.318778 2.5445495 0 0 0 -1.692884 1.1754582 3.2138295 4.0172869 0 0 0 -1.3843576-.395301 3.2138295 4.0172869 0 0 0 -1.3819472.3985148 2.318778 2.5445495 0 0 0 -1.6952944-1.178672.40172869.40172869 0 0 0 -.1365881-.024104zm1.2477694 4.0654946a4.8448479 4.0172869 0 0 0 1.3120462.3109378l-1.9572225 4.2992991-.7279322 1.598881c-1.3530225-.848451-1.8833043-2.649802-1.1626031-4.2334177a3.4508494 3.4508494 0 0 1 1.72422-1.7290393c.067491-.031331.1365872-.053831.2056847-.080344a3.334348 3.334348 0 0 1 .5487619-.1550669l.056241-.01125zm3.9385481 0 .037762.00647c.219344.040172.433867.1044488.641963.1888125.03776.015263.07713.026512.114091.043388a3.4516528 3.4516528 0 0 1 1.74029 1.7370737c.720701 1.5836157.190419 3.3849667-1.162604 4.2342217l-.7295393-1.603708-1.9556156-4.2952817a4.8448479 4.0172869 0 0 0 1.3136529-.3109378z" fill="#fff" stroke-width=".803457"/></svg>

<?xml version="1.0" encoding="UTF-8" standalone="no"?>
<svg
   xmlns:dc="http://purl.org/dc/elements/1.1/"
   xmlns:cc="http://creativecommons.org/ns#"
   xmlns:rdf="http://www.w3.org/1999/02/22-rdf-syntax-ns#"
   xmlns:svg="http://www.w3.org/2000/svg"
   xmlns="http://www.w3.org/2000/svg"
   xmlns:sodipodi="http://sodipodi.sourceforge.net/DTD/sodipodi-0.dtd"
   xmlns:inkscape="http://www.inkscape.org/namespaces/inkscape"
   height="16"
   width="16"
   version="1.1"
   id="svg4"
   sodipodi:docname="bug.svg"
   inkscape:version="0.92.4 (5da689c313, 2019-01-14)">
  <metadata
     id="metadata10">
    <rdf:RDF>
      <cc:Work
         rdf:about="">
        <dc:format>image/svg+xml</dc:format>
        <dc:type
           rdf:resource="http://purl.org/dc/dcmitype/StillImage" />
      </cc:Work>
    </rdf:RDF>
  </metadata>
  <defs
     id="defs8" />
  <sodipodi:namedview
     pagecolor="#ffffff"
     bordercolor="#666666"
     borderopacity="1"
     objecttolerance="10"
     gridtolerance="10"
     guidetolerance="10"
     inkscape:pageopacity="0"
     inkscape:pageshadow="2"
     inkscape:window-width="1920"
     inkscape:window-height="1016"
     id="namedview6"
     showgrid="false"
     inkscape:zoom="14.75"
     inkscape:cx="8"
     inkscape:cy="8"
     inkscape:window-x="0"
     inkscape:window-y="27"
     inkscape:window-maximized="1"
     inkscape:current-layer="svg4" />
  <g
     style="fill:#c6272f"
     id="g10"
     transform="matrix(0.9375,0,0,0.9375,0.50000003,0.5)">
    <path
       style="fill:#c6272f"
       inkscape:connector-curvature="0"
       d="M 5.3261719,0 C 3.6485819,0.0195 2.4196756,-0.04015813 1.4160156,0.51367188 0.91418565,0.79053187 0.51838814,1.25887 0.29882812,1.84375 0.07926812,2.42863 0,3.12319 0,4 v 8 c 0,0.87681 0.07924813,1.57137 0.29882812,2.15625 0.21956002,0.58488 0.61535753,1.053218 1.11718748,1.330078 1.00366,0.55376 2.2325663,0.494242 3.9101563,0.513672 h 0.00391 5.3398441 0.0039 c 1.67759,-0.0195 2.904543,0.04016 3.908203,-0.513672 0.50183,-0.27686 0.897628,-0.745198 1.117188,-1.330078 C 15.919201,13.57137 16,12.87681 16,12 V 4 C 16,3.12319 15.920752,2.42864 15.701172,1.84375 15.481622,1.25887 15.085814,0.79055187 14.583984,0.51367188 13.580324,-0.04011812 12.351428,0.01936 10.673828,0 h -0.0039 -2.0039064 -3.3359375 z"
       id="path2-3" />
    <path
       style="fill:#ed3146"
       inkscape:connector-curvature="0"
       d="M 5.3261719,0 C 3.6485819,0.0195 2.4196756,-0.04015813 1.4160156,0.51367188 0.91418565,0.79053187 0.51838814,1.25887 0.29882812,1.84375 0.07926812,2.42863 0,3.12319 0,4 v 8 c 0,0.87681 0.07924813,1.57137 0.29882812,2.15625 0.21956002,0.58488 0.61535753,1.053218 1.11718748,1.330078 1.00366,0.55376 2.2325663,0.494242 3.9101563,0.513672 h 0.00391 5.3398441 0.0039 c 1.67759,-0.0195 2.904543,0.04016 3.908203,-0.513672 0.50183,-0.27686 0.897628,-0.745198 1.117188,-1.330078 C 15.919201,13.57137 16,12.87681 16,12 V 4 C 16,3.12319 15.920752,2.42864 15.701172,1.84375 15.481622,1.25887 15.085814,0.79055187 14.583984,0.51367188 13.580324,-0.04011812 12.351428,0.01936 10.673828,0 h -0.0039 -2.0039064 -3.3359375 z"
       id="path4" />
    <path
       style="opacity:0.3;fill:#ffffff"
       inkscape:connector-curvature="0"
       d="M 5.3261719,0 C 3.6485818,0.0195 2.4196755,-0.040158 1.4160156,0.5136719 0.9141856,0.7905319 0.51838807,1.25887 0.29882807,1.84375 0.07926807,2.42863 -3e-8,3.12319 -3e-8,4 v 0.5 c 0,-0.87681 0.079268,-1.57137 0.2988281,-2.15625 C 0.51838807,1.75887 0.9141856,1.2905319 1.4160156,1.0136719 2.4196755,0.4598419 3.6485818,0.5195 5.3261719,0.5 h 0.00391 3.3359375 2.0039066 0.0039 c 1.6776,0.01936 2.906496,-0.040118 3.910156,0.5136719 C 15.085812,1.2905519 15.48162,1.75887 15.70117,2.34375 15.920752,2.92864 16,3.62319 16,4.5 V 4 C 16,3.12319 15.92075,2.42864 15.701172,1.84375 15.481622,1.25887 15.085814,0.7905519 14.583984,0.5136719 13.580324,-0.0401181 12.351428,0.01936 10.673828,0 h -0.0039 -2.0039064 -3.3359375 z"
       id="path6" />
    <path
       style="opacity:0.2;fill:#100001"
       inkscape:connector-curvature="0"
       d="m 10.673828,16 c 1.67759,-0.0195 2.906496,0.04016 3.910156,-0.513672 0.50183,-0.27686 0.897628,-0.745198 1.117188,-1.330078 C 15.920732,13.57137 16,12.87681 16,12 v -0.5 c 0,0.87681 -0.07927,1.57137 -0.298828,2.15625 -0.21956,0.58488 -0.615358,1.053218 -1.117188,1.330078 -1.00366,0.55383 -2.232566,0.494172 -3.910156,0.513672 h -0.0039 -3.3359374 -2.0039064 -0.0039 C 3.6485742,15.48064 2.4196782,15.54012 1.4160182,14.986328 0.9141882,14.709448 0.5183802,14.24113 0.2988302,13.65625 0.079248,13.07136 0,12.37681 0,11.5 V 12 c 0,0.87681 0.079248,1.57136 0.298828,2.15625 0.21955,0.58488 0.615358,1.053198 1.117188,1.330078 C 2.419676,16.040118 3.648572,15.98064 5.326172,16 h 0.0039 2.0039064 3.3359376 z"
       id="path8" />
  </g>
  <path
     d="M 4.7835828,2.3757615 A 0.40172869,0.40172869 0 0 0 4.3818547,2.7774901 0.40172869,0.40172869 0 0 0 4.7835828,3.1792188 v 0.00803 a 1.5153206,1.7410921 0 0 1 1.1915278,0.8918377 3.2138295,4.0172869 0 0 0 -1.0171772,1.8222411 4.8448479,4.0172869 0 0 0 0.01125,0.00806 4.3097453,4.3097453 0 0 0 -2.2054903,2.1757618 C 1.7995447,10.205481 2.6544228,12.668881 4.6735109,13.58884 a 0.40092522,0.40092522 0 0 0 0.5318888,-0.200061 l 0.7174875,-1.574777 a 3.2138295,4.2181512 0 0 0 2.0745272,1.006733 3.2138295,4.2181512 0 0 0 2.0793476,-1.007536 l 0.717488,1.57558 c 0.09159,0.202471 0.329417,0.291655 0.531888,0.199257 2.019089,-0.919155 2.874771,-3.382555 1.909819,-5.5036822 a 4.3105488,4.3105488 0 0 0 -2.206295,-2.1757618 4.8448479,4.0172869 0 0 0 0.0065,-0.00319 3.2138295,4.0172869 0 0 0 -1.018784,-1.8222417 1.5153206,1.7410921 0 0 1 1.193938,-0.8958549 v -0.00803 A 0.40172869,0.40172869 0 0 0 11.612972,2.7775464 0.40172869,0.40172869 0 0 0 11.211244,2.3758177 0.40172869,0.40172869 0 0 0 11.074656,2.3991183 2.318778,2.5445495 0 0 0 9.381772,3.5745765 3.2138295,4.0172869 0 0 0 7.9974144,3.1792755 3.2138295,4.0172869 0 0 0 6.6154672,3.5777903 2.318778,2.5445495 0 0 0 4.9201728,2.3991183 0.40172869,0.40172869 0 0 0 4.7835847,2.3750143 Z M 6.0313522,6.4412561 A 4.8448479,4.0172869 0 0 0 7.3433984,6.7521939 L 5.3861759,11.051493 4.6582437,12.650374 C 3.3052212,11.801923 2.7749394,10.000572 3.4956406,8.4169563 A 3.4508494,3.4508494 0 0 1 5.2198606,6.687917 C 5.2873516,6.656586 5.3564478,6.634086 5.4255453,6.607573 A 3.334348,3.334348 0 0 1 5.9743072,6.4525061 l 0.056241,-0.01125 z m 3.9385481,0 0.037762,0.00647 c 0.219344,0.040172 0.433867,0.1044488 0.641963,0.1888125 0.03776,0.015263 0.07713,0.026512 0.114091,0.043388 a 3.4516528,3.4516528 0 0 1 1.74029,1.7370737 c 0.720701,1.5836157 0.190419,3.3849667 -1.162604,4.2342217 L 10.611863,11.047514 8.6562474,6.7522323 A 4.8448479,4.0172869 0 0 0 9.9699003,6.4412945 Z"
     id="path2"
     inkscape:connector-curvature="0"
     style="fill:#ffffff;fill-opacity:1;stroke-width:0.80345738" />
</svg>
